X: 18178
T: Humours Of Ennistymon, The
R: jig
M: 6/8
K: Gmajor
d|:BGB BGB|AFA DFA|BdB B2A/B/|def ged|
BGB d2B|AFD DFA|B/c/dB cAF|AGG G2A:|
|:f>gf fed|cAG FGA|g>fg gfg|f/g/ag fed|
f>gf fed|cAG FGA|B/c/dB cAF|AGG G2A:|
|:BAB gdB|cBc ABc|BAB GBd|cAG FGA|
gfa gdB|cBc ABc|ded cAF|AGG G2A:|

